X:1
T:Thou, Lord, our refuge - Mendelssohn
T:#
%%score [ 1 2 3 4 ]
L:1/8
Q:1/4=132
M:4/4
K:F
V:1 treble nm="Soprano" snm="S"
V:2 treble nm="Alto" snm="A"
V:3 treble-8 nm="Tenor" snm="T"
V:4 bass nm="Bass" snm="B"
V:1
"^Thou, Lord, our refuge""^Felix Mendelssohn\n (1809-1847)""^Psalm 90:1-2"!p! D4 | F4 B4 | %2
w: Thou,|Lord, our|
 A4 A2 A2 | c4 c4 | F4 B4 |[M:4/4] A8 | z8 | z8 | z8 | z8 |!p! G2 G2 G2 G2 | B4"^cresc." B4 | %12
w: re- fuge hast|been from|age to|age,|||||Ere Thou hadst brought|forth the|
 d2 d2 d2 d2 | d4 d4 |!f! g4 g4 | c2 c2 c2 c2 | f8 | e4 z4 |!pp! c4 c4 | F6 F2 | B4 B4 | %21
w: moun- tains, or the|earth hast|form- ed,|or the world cre-|a-|ted,|Thou art|God from|e- ver-|
 A4 A2 (FG) | A4 A4 | A4 z4 | z8 |!p! B2 B2"^cresc." B2 B2 |!f! _e4 e4 | g2 g2 g2 g2 | g8 | %29
w: last- ing, world *|with- out|end.||Ere Thou hadst the|moun- tains,|or the world cre-|a-|
 ^f4 z4 |!pp! d4 d4 | G6 G2 | c4 B4 | A4 A2 (FG) | A4 A4 | A4!f! A3 A | d4 A4- | A4!p! D3 D | E8- | %39
w: ted,|Thou art|God from|e- ver-|last- ing, world *|with- out|end. Hal- le-|lu- jah,|* Hal- le-|lu\-|
 E8 | D8 |] %41
w: |jah.|
V:2
!p! D4 | F4 B4 | A4 F2 F2 | E4 E4 | D4 D4 |[M:4/4] ^C8 | z8 | z8 |!p! D2 D2 D2 D2 | D4 D4 | D4 C4 | %11
w: Thou,|Lord, our|re- fuge hast|been from|age to|age,|||Ere Thou hadst brought|forth, Thou|hadst brought|
 G4"^cresc." G4 | G2 G2 G2 G2 | B4 B4 |!f! B4 B4 | A2 A2 A2 A2 | _A8 | G4 z4 | %18
w: forth the|moun- tains, or the|earth hast|form- ed,|or the world cre-|a-|ted,|
!pp! (=A2 G2) (F2 E2) | D6 D2 | (G2 F2) (E2 D2) | (^C4 D4- | D4) ^C4 |!p! D2 D2 D2 D2 | D4 D4 | %25
w: Thou * art *|God from|e\- * ver\- *|last\- *|* ing.|Ere Thou hadst brought|forth the|
 D2 D2"^cresc." D2 D2 |!f! G4 G4 | B2 B2 B2 B2 | (B4 A4) | A4 z4 |!pp! (B2 A2) (G2 =F2) | E6 E2 | %32
w: moun- tains, or the|earth, the|earth or world cre-|a\- *|ted,|Thou * art *|God from|
 (G2 F2) (E2 D2) | ^C4 D2 D2 | D4 ^C4 | D4!f! A3 A | d4 A4- | A4!p! D3 D | (D8 | ^C8) | D8 |] %41
w: e\- * ver\- *|last- ing, world|with- out|end. Hal- le-|lu- jah,|* Hal- le-|lu\-||jah.|
V:3
!p! D4 | F4 B4 | A4 d2 d2 | c4 A4 | F4 G4 |[M:4/4][K:treble-8] E8 |!p! A2 A2 A2 A2 | A4 A4 | %8
w: Thou,|Lord, our|re- fuge hast|been from|age to|age,|Ere Thou hadst brought|forth, brought|
 A4 A4 | (A4 G4 | _E4) _e4 | d2 d2"^cresc." d2 d2 | B4 B4 | B2 B2 B2 B2 |!f! c2 c2 c2 c2 | c4 c4 | %16
w: forth the|moun\- *|* tains,|Ere Thou hadst brought|forth the|moun- tains, or the|earth hadst form- ed,|or the|
 c2 c2 c4 | c4 z4 |!pp! F4 F4 | F6 F2 | E4 G4 | G4 F2 F2 | E4 E4 | A4 z4 |!p! c2 c2 c2 c2 | B4 B4 | %26
w: world cre- a-|ted,|Thou art|God from|e- ver-|last- ing, world|with- out|end.|Ere Thou hadst brought|forth the|
!f! B2 B2 B2 B2 | _e2 e2 e2 d2 | ^c8 | d4 z4 |!pp! d4 d4 | c6 c2 | c4 E4 | E4 F2 F2 | E4 E4 | %35
w: moun- tains, or the|earth, or world cre-|a-|ted,|Thou art|God from|e- ver-|last- ing, world|with- out|
 F4!f! A3 A | d4 A4- | A4 z4 | z4!p! E3 E | A8 | ^F8 |] %41
w: end. Hal- le-|lu- jah,||Hal- le-|lu-|jah.|
V:4
!p! D,4 | F,4 B,4 | A,4 D,2 D,2 | A,,4 A,,4 | B,,4 G,,4 |[M:4/4] A,,8 | z8 |!p! F,2 F,2 F,2 F,2 | %8
w: Thou,|Lord, our|re- fuge hast|been from|age to|age,||Ere Thou hadst brought|
 F,8 | B,,2 B,,2 B,,2 B,,2 | C,8 | G,,2 G,,2"^cresc." G,,2 G,,2 | G,,4 G,,4 | G,2 G,2 G,2 G,2 | %14
w: forth,|Ere Thou hadst brought|forth,|Ere Thou hadst brought|forth the|moun- tains, or the|
!f! =E,2 E,2 E,2 E,2 | F,4 F,4 | F,,2 F,,2 F,,4 | C,4 z4 |!pp! A,,4 A,,4 | B,,6 A,,2 | G,,4 G,,4 | %21
w: earth hadst form- ed,|or the|world cre- a-|ted,|Thou art|God from|e- ver-|
 A,,4 A,,2 A,,2 | A,,4 G,,4 | ^F,,4 z4 |!p! ^F,2 F,2 F,2 F,2 | G,4 G,4 |!f! G,2 G,2 G,2 G,2 | %27
w: last- ing, world|with- out|end.|Ere Thou hadst brought|forth the|moun- tains, or the|
 _E,2 E,2 E,2 E,2 | _E,8 | D,4 z4 |!pp! B,,4 B,,4 | C,6 B,,2 | A,,4 G,,4 | A,,4 A,,2 A,,2 | %34
w: earth, or world cre-|a-|ted,|Thou art|God from|e- ver-|last- ing, world|
 A,,4 A,,4 | D,4!f! A,3 A, | D4 A,4- | A,4!p! D,3 D, | A,,8- | A,,8 | D,8 |] %41
w: with- out|end. Hal- le-|lu- jah,|* Hal- le-|lu\-||jah.|

